X:1
T:Red Wing Seminary, 77.77.77
T:Red Wing Seminary, 77.77.77
T:John Dahle (1853-1931)
T:Public Domain Courtesy of the Cyber Hymnal™
C:John Dahle (1853-1931)
Z:Public Domain
Z:Courtesy of the Cyber Hymnal™
%%score ( 1 2 ) ( 3 4 )
L:1/8
Q:1/4=110
M:none
K:Eb
V:1 treble 
V:2 treble 
V:3 bass 
V:4 bass 
V:1
 [EG]2 [EA]2 [EB]2 ([FA][EG]) | (FG) [DA]2 [EG]4 | [EB]2 [EG]2 [Ec]2 [EB]2 | A2 G2 [DF]4 | %4
 [EG]2 [EA]2 [FB]2 ([FA][EG]) | (FG) [EA]2 [DG]4 | B3 z B [Ec]2 [Fd]2 | [Ee]2 [F=A]2 [FB]4 | %8
 [Fc]2 B2 A2 [EG]2 | [DF]2 [EG]2 [FA]4 | [DG]3 [EG] A2 [EG]2 | [EF]2 [DF]2 [B,E]4 |] %12
V:2
 x8 | D2 x6 | x8 | (ED) (EC) x4 | x8 | E2 x6 | E2 E2 x5 | x8 | x2 (GE) (ED) x2 | x8 | x4 (ED) x2 | %11
 x8 |] %12
V:3
 [E,B,]2 [C,E]2 [G,,B,]2 [A,,C]2 | [B,,D]2 [B,,B,]2 [E,B,]4 | [G,B,]2 [E,B,]2 A,2 [G,B,]2 | %3
 (CB,) (B,=A,) [B,,B,]4 | [E,B,]2 [C,C]2 [D,B,]2 [E,B,]2 | C2 [F,C]2 [G,=B,]4 | %6
 [G,B,]3 [G,B,] A,2 [F,A,]2 x | (G,C) (CE) [B,D]4 | [A,D]2 (EB,) [F,B,]2 [E,B,]2 | %9
 B,2 [G,B,]2 [F,C]4 | [G,=B,]3 [C,C] C2 C2 | (F,G,) [B,,A,]2 [E,G,]4 |] %12
V:4
 x8 | x8 | x4 A,2 x2 | F,2 E,2 x4 | x8 | (A,G,) x6 | x4 A,2 x3 | C,2 F,2 x4 | x2 G,2 x4 | %9
 (B,A,) x6 | x4 (F,F,,) (G,,A,,) | B,,2 x6 |] %12

